!!!!SEGMENT: pl-kk--kk-i-382--004-001_anonim--nro-1-alleluia-ave-maria.krn
!!!cenid: 18xx:1457
!!!COM: Anonim
!!!COM-rismID: pe30004985
!!!CDT:
!!!CNT:
!!!OPR: Nro 1
!!!OTL: Alleluia Ave Maria
!!!OMV: 005
!!!PDT:
!!!AGN: Sacred
!!!SMS-siglum: PL-Kk
!!!SMS-shelfmark: Kk.I.382
!!!SMS-shelfwork: 001-005 M
!!!SMS-variant:
!!!SMS-altvar:
!!!NIFC-rismSourceID: 1001139086
!!!NIFC-islandoraID: pl-kk:6162
!!!URL-pdf-islandora: https://repozytorium.nifc.pl/islandora/object/pl-kk%3A6162/datastream/PDF/view
!!!URL-scan: https://polish.musicsources.pl/pl/lokalizacje/galeria/rekopisy/5994 @EN{Scan on Polish Music Sources Website} @PL{Skany w portalu Dziedzictwo Muzyki Polskiej w otwartym dostępie}
!!!ONB-nifc: UWAGA: obsada: S (T 1), T 2, A (B 1), B 2; S (T 1): skan 0005; A (B 1): skan 0148; T 2: skan 0075; B 2: skan 0220;
!!!AIN: 1 alto 1 bass 2 tenor
!!!key:
**kern	**text	**kern	**text	**kern	**text	**kern	**text
*part4	*part4	*part3	*part3	*part2	*part2	*part1	*part1
*staff4	*staff4	*staff3	*staff3	*staff2	*staff2	*staff1	*staff1
*Ibass	*	*Itenor	*	*Ialto	*	*Itenor	*
*I"Basso II	*	*I"Tenore II	*	*I"Alto vel Basso I	*	*I"Soprano vel Tenore I.	*
*I'B 2	*	*I'T 2	*	*I'A (B 1)	*	*I'S (T 1)	*
*clefF4	*	*clefC4	*	*clefC3	*	*clefC1	*
*k[]	*	*k[]	*	*k[]	*	*k[]	*
*C:	*	*C:	*	*C:	*	*C:	*
*M3/2	*	*M3/2	*	*M3/2	*	*M3/2	*
=1	=1	=1	=1	=1	=1	=1	=1
*2\right	*	*2\right	*	*2\right	*	*2\right	*
*	*	*	*	*	*	*rscale:1/2	*
!LO:TX:a:t=P:problem=w źródle "Alleluia" zapisane przed pierwszym taktem, na pięciolinii	!	!LO:TX:a:t=P:problem=w źródle "Alleluia" zapisane przed pierwszym taktem, na pięciolinii	!	!LO:TX:a:t=P:problem=w źródle "Alleluia" zapisane przed pierwszym taktem, na pięciolinii	!	!LO:TX:a:t=P:problem=w źródle "Alleluia" zapisane przed pierwszym taktem, na pięciolinii	!
!	!	!	!	!	!	!LO:TX:a:i:t=Alleluia	!
!LO:TX:a:i:t=Alleluia	!	!LO:TX:a:i:t=Alleluia	!	!LO:TX:a:i:t=Alleluia	!	!LO:TX:t=P:problem=w źródle ten głos zapisany w metrum 3/4, ale pozostałe głosy w 3/2	!
!LO:TX:t=P:problem=all\right&colon; global	!	!LO:TX:t=P:problem=all\right&colon; global	!	!LO:TX:t=P:problem=all\right&colon; global	!	!LO:TX:t=P:problem=all\right&colon; global	!
2c\	Al-	2e\	Al-	2e\	Al-	2g\	Al-
2c\	-le-	2e\	-le-	2e\	-le-	2g\	-le-
2A\	-lu-	(>4f#X\	-lu-	2f#X\	-lu-	2cc\	-lu-
.	.	4e\)	.	.	.	.	.
=2	=2	=2	=2	=2	=2	=2	=2
1B	-ja	1d#X	-ia	1f#X	-ia	1b	-ja
2E\	al-	2e\	al-	2g\	al-	2b\	al-
=3	=3	=3	=3	=3	=3	=3	=3
(>2E\	-le-	1e	-le-	2g\	-le-	2b\	-le-
2B\)	.	.	.	1f#X	-lu-	1b	-lu-
2BB/	-lu-	2d#X\	-lu-	.	.	.	.
=4	=4	=4	=4	=4	=4	=4	=4
1.E	-ia	1.e	-ia	1.g#X	-ia	1.b	-ja
=5	=5	=5	=5	=5	=5	=5	=5
(>2C/	al-	2G/	al-	2e\	al-	2cc\	al-
2E\)	.	2G/	-le-	2e\	-le-	2cc\	-le-
2E\	-le-	2G/	-lu-	2e\	-lu-	2cc\	-lu-
=6	=6	=6	=6	=6	=6	=6	=6
2F\	-lu-	(>2A/	-ia	(>2fn\	-ia	1cc	-ja
2C/	-ia	2G/	.	2e\	.	.	.
2F\	al-	2A/)	.	2f\)	.	2a\	al-
!LO:LB:g=original	!	!LO:LB:g=original	!	!	!	!LO:LB:g=original	!
=7	=7	=7	=7	=7	=7	=7	=7
(>1F	.	1.G	al-	(>1d	al-	1b	-le-
2E\)	.	.	.	2g\)	.	[>2cc\	.
!	!	!	!	!LO:LB:g=original	!	!	!
=8	=8	=8	=8	=8	=8	=8	=8
(>2F\	-le-	2A\	-le-	(>4f\	-le-	1cc]	.
.	.	.	.	4e\)	.	.	.
2G\)	.	1G	-lu-	1d	-lu-	.	.
2GG/	-lu-	.	.	.	.	2b\	-lu-
=9	=9	=9	=9	=9	=9	=9	=9
2C/	-ia	2G/	-ia	2e\	-ia	2cc\	-ja
2A\	al-	2A/	al-	2e\	al-	2cc\	al-
2E\	-le-	2G#X/	-le-	2e\	-le-	2b\	-le-
=10	=10	=10	=10	=10	=10	=10	=10
(>1A	-lu-	1.A	-lu-	1.e	-lu-	1.cc	-lu-
2AA/)	.	.	.	.	.	.	.
=11	=11	=11	=11	=11	=11	=11	=11
1.E	-ia.	1.G#X	-ia	1.e	-ia	1.b	-ja
==12	==12	==12	==12	==12	==12	==12	==12
2E\	A-	2e\	A-	1.r	.	2ee\	A-
!	!	!	!	!LO:TX:a:t=1.	!	!	!
2E\	-ve	2e\	-ve	.	.	2ee\	-ve
2E\	ma	2e\	ma-	.	.	2ee\	ma-
=13	=13	=13	=13	=13	=13	=13	=13
2A\	A-	1c	-ri-	2e\	A-	1cc	-ri-
2A\	-ve	.	.	2e\	-ve	.	.
2A\	ma-	2c\	-a	2e\	ma-	2cc\	-a
!LO:LB:g=original	!	!	!	!	!	!	!
=14	=14	=14	=14	=14	=14	=14	=14
1F	-ri-	2A\	a-	1f	-ri-	2.dd\	gra-
.	.	2A\	-ve	.	.	.	.
.	.	.	.	.	.	4dd\	-ti-
2F\	-a	2A\	ma-	2f\	-a	2dd\	-a
!	!	!LO:LB:g=original	!	!	!	!LO:LB:g=original	!
=15	=15	=15	=15	=15	=15	=15	=15
2.G\	gra-	1B	-ri-	2.d\	gra-	1b	ple-
4G\	-ti-	.	.	4d\	-ti-	.	.
2G\	-a	2B\	-a	2d\	-a	2b\	-na
=16	=16	=16	=16	=16	=16	=16	=16
1E	ple-	2G/	gra-	1e	ple-	2.cc\	Do-
.	.	2G/	-ti-	.	.	.	.
.	.	.	.	.	.	4cc\	-mi-
2E\	-na	2G/	-a	2e\	-na	2cc\	-nus
!	!	!	!	!LO:LB:g=original	!	!	!
=17	=17	=17	=17	=17	=17	=17	=17
2.F\	Do-	1A	ple-	2.c\	Do-	1a	te-
4F\	-mi-	.	.	4c\	-mi-	.	.
2E\	-nus	2A\	-na	2c\	-nus	2a\	-cum
=18	=18	=18	=18	=18	=18	=18	=18
2.D/	Do-	2.d\	Do-	2.f\	Do-	2.bn\	Do-
4D/	-mi-	4d\	-mi-	4f\	-mi-	4b\	-mi-
2C/	-nus	2e\	-nus	2e\	-nus	2cc\	-nus
=19	=19	=19	=19	=19	=19	=19	=19
(>2F\	te-	2A/	te-	1.d	te-	(>1cc	te-
2G\	.	1G	.	.	.	.	.
2GG/)	.	.	.	.	.	2b\)	.
=20	=20	=20	=20	=20	=20	=20	=20
2C/	-cum	2G/	-cum	2e\	-cum	2cc\	-cum
2c\	be-	2c\	be-	2r	.	2cc\	be-
2A\	-ne-	2A\	-ne-	2r	.	2a\	-ne-
!LO:LB:g=original	!	!	!	!	!	!	!
=21	=21	=21	=21	=21	=21	=21	=21
!	!	!	!	!LO:TX:a:t=3.	!	!	!
!	!	!	!	!LO:N:vis=0	!	!	!
2B\	-[di-	2B\	-dic-	0.r	.	2b\	-dic-
2G\	-cta]	2G/	-ta	.	.	2g\	-ta
4E\	be-	2c\	tu	.	.	2cc\	tu
4E\	-ne-	.	.	.	.	.	.
!	!	!LO:LB:g=original	!	!	!	!LO:LB:g=original	!
=22	=22	=22	=22	=22	=22	=22	=22
(>2F\	-dic-	1A	be-	.	.	2a\	be-
2D\)	.	.	.	.	.	2a\	-ne-
2G\	-ta	2B\	-ne-	.	.	2b\	-dic-
=23	=23	=23	=23	=23	=23	=23	=23
1E	tu	2c\	-dic-	1.r	.	2cc\	-ta
.	.	2c\	-ta	.	.	2cc\	be-
2F\	in	2f\	tu	.	.	2a\	-ne-
=24	=24	=24	=24	=24	=24	=24	=24
(>2G\	mu-	2d\	in	2r	.	4b\	-dic-
.	.	.	.	.	.	4b\	-ta
2E\)	.	2e\	mu-	2g\	in	4g\	tu
.	.	.	.	.	.	4g\	in
2C\	-li-	2e\	-li-	4e\	mu-	4cc\	mu-
.	.	.	.	4e\	-li-	4cc\	-li-
=25	=25	=25	=25	=25	=25	=25	=25
2.D\	-e-	2.d\	-e-	2.f#X\	-e-	2.a\	-e-
4D\	-ri-	4d\	-ri-	4f#\	-ri-	4a\	-ri-
2GG\	-bus	2d\	-bus	2g\	-bus	2b\	-bus
=26	=26	=26	=26	=26	=26	=26	=26
2C/	et	2c\	et	2e\	et	2cc\	et
!	!	!	!	!	!	!LO:LB:g=original	!
2E\	be-	2G/	be-	2.e\	be-	2cc\	be-
!LO:TX:a:t=P:problem=w źrodle ta adnotacja zapisana za taktem 26, na wysokości pięciolinii	!	!	!	!	!	!	!
!LO:TX:a:i:t=V&colon; S&colon;	!	!	!	!	!	!	!
2C/	-ne-	2G/	-ne-	.	.	2cc\	-ne-
.	.	.	.	4d\	-ne-	.	.
!LO:PB:g=original	!	!	!	!LO:LB:g=original	!	!	!
=27	=27	=27	=27	=27	=27	=27	=27
(>2F\	-dic-	1.A	-dic-	4c\	-dic-	2a\	-dic-
.	.	.	.	4c\	-tus	.	.
2D\)	.	.	.	2.f\	fru-	2dd\	-tus
2F\	-tus	.	.	.	.	4dd\	fru-
.	.	.	.	4e\	-ctus	4cc\	-ctus
=28	=28	=28	=28	=28	=28	=28	=28
[>2G\	fru-	1.B	tus	4d\	ven-	4b\L	ven-
.	.	.	.	4c\	.	4a\	.
2.G\]	.	.	.	4d\	.	4b\	.
.	.	.	.	4e\	.	4cc\	.
.	.	.	.	4f\	.	4dd\	.
4F\	-ctus	.	.	4d\	.	4b\J	.
=29	=29	=29	=29	=29	=29	=29	=29
(>4E\	ven-	2c\	fru-	1g	.	1cc	.
4D\	.	.	.	.	.	.	.
4E\	.	1e	-ctus	.	.	.	.
4F\	.	.	.	.	.	.	.
4G\	.	.	.	2g\	-tris	2cc\	-tris
4E\)	.	.	.	.	.	.	.
!	!	!LO:LB:g=original	!	!	!	!	!
=30	=30	=30	=30	=30	=30	=30	=30
2F\	.	2c\	ven-	2a\	ven-	2a\	ven-
2E\	-tris	2c\	-tris	2e\	-tris	2a\	-tris
2D\	tu-	2d\	tu-	2f\	tu-	2b\	tu-
!	!	!	!	!	!	!LO:LB:g=original	!
=31	=31	=31	=31	=31	=31	=31	=31
2C/	-i	2G/	-i	2e\	-i	2cc\	-i
2c\	al-	2c\	al-	(>4g\	al-	2ee\	al-
.	.	.	.	4a\)	.	.	.
2G\	-le-	2B\	-le-	(>4g\	-le-	2dd\	-le-
.	.	.	.	4f\)	.	.	.
=32	=32	=32	=32	=32	=32	=32	=32
(>2A\	-lu-	2c\	-lu-	2e\	-lu-	2cc\	-lu-
2F\)	.	1A	-ia	(>4f\	-ia	2dd\	-ja
.	.	.	.	4g\	.	.	.
2D\	-ia	.	.	4f\	.	2a\	al-
.	.	.	.	4e\)	.	.	.
!LO:LB:g=original	!	!	!	!LO:LB:g=original	!	!	!
=33	=33	=33	=33	=33	=33	=33	=33
(>4G\	al-	4B\	-al-	1d	al-	(>1b	-le-
4A\	.	4c\	.	.	.	.	.
4G\	.	4B\	.	.	.	.	.
4F\)	.	4A\	.	.	.	.	.
2E\	.	(>2G/	-le-	2e\	-le-	2cc\)	.
=34	=34	=34	=34	=34	=34	=34	=34
(>2F\	-le-	2A/)	.	1.d	-lu-	(>1cc	-lu-
2G\)	.	1G	-lu-	.	.	.	.
2GG/	-lu-	.	.	.	.	2b\)	.
=35	=35	=35	=35	=35	=35	=35	=35
1.C	-ia.	1.G	-ia.	1.e	-ia.	1.cc	-ja.
==	==	==	==	==	==	==	==
*-	*-	*-	*-	*-	*-	*-	*-
!!!system-decoration: [(s1,s2,s3,s4)]
!!!RDF**kern: > = above
!!!RDF**kern: < = below
!!!EED: Antoni Szymański
!!!EEV: 2021-02-01
!!!ENC: Kamil Watkowski
!!!END: 2021-01-29
!!!YEC: Copyright 2022 Narodowy Instytut Fryderyka Chopina (https://polishscores.org)
!!!YEM: Licence CC BY 4.0 (https://creativecommons.org/licenses/by/4.0)
